src/images/sprite.svg

<svg aria-hidden="true" style="position: absolute; width: 0; height: 0; overflow: hidden;" version="1.1" xmlns="http://www.w3.org/2000/svg" xmlns:xlink="http://www.w3.org/1999/xlink">
<defs>
<symbol id="icon-search" viewBox="0 0 32 32">
<path fill="none" stroke="#fff" style="stroke: var(--color1, #fff)" stroke-linejoin="round" stroke-linecap="round" stroke-miterlimit="4" stroke-width="2.6667" d="M14.667 25.333c5.891 0 10.667-4.776 10.667-10.667s-4.776-10.667-10.667-10.667v0c-5.891 0-10.667 4.776-10.667 10.667s4.776 10.667 10.667 10.667v0zM28 28l-5.8-5.8"></path>
</symbol>
<symbol id="icon-favorite" viewBox="0 0 32 32">
<path fill="#ff6b08" style="fill: var(--color2, #ff6b08)" d="M16 30.144l-2.24-2.217c-8.32-7.287-13.76-12.201-13.76-18.217 0-4.917 3.84-8.715 8.8-8.715 2.72 0.002 5.44 1.269 7.2 3.326 1.761-2.019 4.329-3.296 7.195-3.323l0.005-0c4.96 0 8.8 3.801 8.8 8.711 0 6.021-5.44 10.933-13.76 18.217l-2.24 2.219z"></path>
</symbol>
<symbol id="icon-arrow-right" viewBox="0 0 32 32">
<path stroke-linejoin="round" stroke-linecap="round" stroke-miterlimit="4" stroke-width="2.666" d="M6.666 16h18.668M16 25.334l9.334-9.334-9.334-9.334"></path>
</symbol>
<symbol id="icon-arrow-left" viewBox="0 0 32 32">
<path stroke-linejoin="round" stroke-linecap="round" stroke-miterlimit="4" stroke-width="2.666" d="M25.334 16h-18.668M16 25.334l-9.334-9.334 9.334-9.334"></path>
</symbol>
<symbol id="icon-film" viewBox="0 0 32 32">
<path fill="none" stroke="#fff" style="stroke: var(--color1, #fff)" stroke-linejoin="round" stroke-linecap="round" stroke-miterlimit="4" stroke-width="2.6667" d="M26.427 3.605h-20.853c-1.605 0-2.907 1.24-2.907 2.768v19.856c0 1.528 1.301 2.768 2.907 2.768h20.853c1.605 0 2.907-1.24 2.907-2.768v-19.856c0-1.528-1.301-2.768-2.907-2.768zM9.333 3.605v25.392M22.667 3.605v25.392M2.667 16.301h26.667M2.667 9.953h6.667M2.667 22.649h6.667M22.667 22.649h6.667M22.667 9.953h6.667"></path>
</symbol>
<symbol id="icon-close" viewBox="0 0 32 32">
<path stroke-linejoin="miter" stroke-linecap="butt" stroke-miterlimit="4" stroke-width="2.1333" d="M8.533 8.533l14.933 14.933M8.533 23.467l14.933-14.933"></path>
</symbol>
</defs>
</svg>

<svg aria-hidden="true" style="position:absolute;width:0;height:0;overflow:hidden" xmlns="http://www.w3.org/2000/svg">
  <defs>
    <symbol id="icon-arrow-left" viewBox="0 0 32 32">
      <path stroke-linejoin="round" stroke-linecap="round" stroke-width="2.666" d="M25.334 16H6.666M16 25.334 6.666 16 16 6.666"/>
    </symbol>
    <symbol id="icon-arrow-right" viewBox="0 0 32 32">
      <path stroke-linejoin="round" stroke-linecap="round" stroke-width="2.666" d="M6.666 16h18.668M16 25.334 25.334 16 16 6.666"/>
    </symbol>
    <symbol id="icon-logo" viewBox="0 0 32 32">
      <path fill="none" stroke="#fff" style="stroke:var(--color1, #fff)" stroke-linejoin="round" stroke-linecap="round" stroke-width="2.667" d="M26.427 2.667H5.574a2.907 2.907 0 0 0-2.907 2.907v20.853a2.907 2.907 0 0 0 2.907 2.907v0h20.853a2.907 2.907 0 0 0 2.907-2.907v0V5.574a2.907 2.907 0 0 0-2.907-2.907v0zm-17.094 0v26.667M22.667 2.667v26.667M2.667 16h26.667M2.667 9.333h6.667M2.667 22.667h6.667m13.333 0h6.667M22.667 9.333h6.667"/>
    </symbol>
    <symbol id="icon-search" viewBox="0 0 32 32">
      <path fill="none" stroke="#fff" style="stroke:var(--color1, #fff)" stroke-linejoin="round" stroke-linecap="round" stroke-width="2.667" d="M14.667 25.333c5.891 0 10.667-4.776 10.667-10.667S20.558 3.999 14.667 3.999v0C8.776 3.999 4 8.775 4 14.666s4.776 10.667 10.667 10.667v0zM28 28l-5.8-5.8"/>
    </symbol>
    <symbol id="icon-heart" viewBox="0 0 32 32">
      <path fill="#ff6b08" style="fill:var(--color2, #ff6b08)" d="m16 30.144-2.24-2.217C5.44 20.64 0 15.726 0 9.71 0 4.793 3.84.995 8.8.995c2.72.002 5.44 1.269 7.2 3.326A9.64 9.64 0 0 1 23.195.998h.005c4.96 0 8.8 3.801 8.8 8.711 0 6.021-5.44 10.933-13.76 18.217L16 30.145z"/>
    </symbol>
    <symbol id="icon-close" viewBox="0 0 32 32">
      <path stroke-width="2.133" d="m8.533 8.533 14.933 14.933m-14.933.001L23.466 8.534"/>
    </symbol>
  </defs>
</svg>
